svg/iD-sprite/presets/restriction-only-straight-on.svg

<?xml version="1.0" encoding="UTF-8"?>
<!DOCTYPE svg PUBLIC "-//W3C//DTD SVG 1.1//EN" "http://www.w3.org/Graphics/SVG/1.1/DTD/svg11.dtd">
<svg version="1.1" xmlns="http://www.w3.org/2000/svg" xmlns:xlink="http://www.w3.org/1999/xlink" x="0" y="0" width="60" height="60" viewBox="0 0 60 60">
  <path d="M30,14 C21.163,14 14,21.163 14,30 C14,38.837 21.163,46 30,46 C38.837,46 46,38.837 46,30 C46,21.163 38.837,14 30,14 z M30,18 L39,28 L33,28 L33,40.531 C32.047,40.832 31.051,41 30,41 C28.96,41 27.953,40.863 27,40.594 L27,28 L21,28 L30,18 z" fill="#58A9ED"/>
</svg>

<?xml version="1.0" encoding="utf-8"?>
<!-- Generator: Adobe Illustrator 23.0.4, SVG Export Plug-In . SVG Version: 6.00 Build 0)  -->
<svg version="1.1" id="Layer_1" xmlns="http://www.w3.org/2000/svg" xmlns:xlink="http://www.w3.org/1999/xlink" x="0px" y="0px"
	 viewBox="0 0 60 60" style="enable-background:new 0 0 60 60;" xml:space="preserve">
<style type="text/css">
	.st0{fill:#FFFFFF;}
</style>
<path class="st0" d="M30,14c-8.8,0-16,7.2-16,16s7.2,16,16,16s16-7.2,16-16S38.8,14,30,14z M30,18l9,10h-6v12.5
	c-1,0.3-1.9,0.5-3,0.5c-1,0-2-0.1-3-0.4V28h-6L30,18z"/>
</svg>
